X:1
T:Title
%%score { ( 1 2 ) | ( 3 4 ) }
L:1/8
M:4/4
K:Eb
V:1 treble nm="Grand Piano"
V:2 treble 
V:3 bass 
V:4 bass 
V:1
 z4 z2[Q:1/4=100] z F | G3 G A2 c2 | B3 B GB,EG | z4 [DB]4 | G6 z F | G3 B A2 c2 | %6
 [EB]2 [Ee]2 [Ed]2 [Ec]2 | [EB]3 [EB] [DA]2 [DF]2 |[M:5/8] E-E- E3 |[M:3/8] B,EG |[M:4/4] B6 z2 | %11
 G6 E2 | c2 B2 A2 G2 | [B,DF]6 E2 | G3 F E2 D2 | C2 E2 A2 [Ec]2 | [EB]3 [EB] [DA]2 [DF]2 | %17
[M:3/4] E6 |] %18
V:2
 z4 z2 E2 | x8 | x8 | [DF]4 z2 B,2 | z4 z2 E2 | x8 | x8 | x8 |[M:5/8] x5 |[M:3/8] x3 | %10
[M:4/4] z2 DD DFFF | x8 | x8 | x8 | x8 | x8 | x8 |[M:3/4] x6 |] %18
V:3
 z4 z2 G,A, | [E,B,E]3 [E,B,E] [E,CE]2 [E,A,E]2 | [E,G,E]3 [E,G,E] [E,B,E][E,G,][E,G,B,][E,B,E] | %3
 [B,,B,]4 F,2 z2 | [E,B,E]6 G,A, | [E,B,E]3 [E,G,E] [E,CE]2 [E,A,E]2 | %6
 [D,G,]2 [G,,B,]2 [A,,B,]2 [A,,A,]2 | [B,,G,]3 [B,,G,] [B,,F,]2 [B,,A,]2 | %8
[M:5/8] [E,G,]-[E,G,]- [E,G,]3 |[M:3/8] B,,E,G, | %10
[M:4/4] B,2 [B,,F,][B,,F,] [B,,F,][B,D][B,D][B,D] | [E,B,E]6 [E,G,]2 | %12
 [A,E]2 [G,B,E]2 [F,B,D]2 [E,B,E]2 | B,,6 G,2 | B,3 A, G,2 B,2 | A,2 C2 C2 [A,,A,]2 | %16
 [B,,G,]3 [B,,G,] [B,,F,]2 [B,,A,]2 |[M:3/4] [E,G,]6 |] %18
V:4
 z4 z2 E,2 | x8 | x8 | z4 B,,4 | z4 z2 E,2 | x8 | x8 | x8 |[M:5/8] x5 |[M:3/8] x3 |[M:4/4] x8 | %11
 x8 | x8 | x8 | x8 | x8 | x8 |[M:3/4] x6 |] %18

